X:1
T:Title
%%score ( 1 2 ) ( 3 4 )
L:1/8
Q:1/4=120
M:3/2
K:Db
V:1 treble nm="Strings 1, Soprano"
V:2 treble 
V:3 bass nm="Strings 1, Bass"
V:4 bass 
V:1
 z4 z2 [DF]2 [DF]2 [EG]2 | [FA]6 [DF]2 [DG]2 [DF]2 | [CE]6 [CE]2 [CE]2 [DF]2 | %3
w: 1.~The~ e ven|tide~ falls~ gent ly~|now,~ By~ Ked ron's~|
 [EG]6 [DF]2 [CE]2 D2 | [DF]6 [FA]2 [FA]2 [FA]2 | [FA]6 [DF]2 [DF]2 [DF]2 | %6
w: side,~ o'er~ Ol ive's~|brow,~ And~ through~ the~|gloom~ me thinks~ I~|
 [DG]6 [GB]2 [GB]2 [GB]2 | %7
w: see~ A~ lone ly~|
 z4 A8[Q:1/4=118][Q:1/4=116][Q:1/4=115][Q:1/4=113][Q:1/4=111][Q:1/4=109][Q:1/4=108][Q:1/4=106][Q:1/4=104][Q:1/4=102][Q:1/4=101][Q:1/4=99][Q:1/4=97][Q:1/4=95][Q:1/4=94][Q:1/4=92][Q:1/4=90] | %8
w: prayer~|
 [DF]6[Q:1/4=120] D2 D2 D2 | [DB]6 [GB]2 [GB]2 [FA]2 | [FA]6 [FA]2 [DA]2 D2 | %11
w: me.~ The~ gen tle~|tone~ through~ state ly~|trees,~ Is~ borne~ up|
 [DF]6 [DF]2 [DE]2 D2 | [DF]6 [CA]2 [CA]2 [GA]2 | [FA]6 [DF]2 [CE]2 D2 | [DB]6 [GB]2 [GB]2 [FA]2 | %15
w: on~ the~ mur m'ring~|breeze,~ He~ bowed~ His~|head�~ God's~ on ly~|Son�~ And~ meek ly~|
 z4 A8[Q:1/4=118][Q:1/4=116][Q:1/4=115][Q:1/4=113][Q:1/4=111][Q:1/4=109][Q:1/4=108][Q:1/4=106][Q:1/4=104][Q:1/4=102][Q:1/4=101][Q:1/4=99][Q:1/4=97][Q:1/4=95][Q:1/4=94][Q:1/4=92][Q:1/4=90] | %16
w: will~|
 [DF]8 [FA]4[Q:1/4=120] | A12- | A8 z4 | d12- | d8 z4 | %21
w: done."~ *|||||
 z4 z4 G4[Q:1/4=118][Q:1/4=116][Q:1/4=115][Q:1/4=113][Q:1/4=111][Q:1/4=109][Q:1/4=108][Q:1/4=106][Q:1/4=104][Q:1/4=102][Q:1/4=101][Q:1/4=99][Q:1/4=97][Q:1/4=95][Q:1/4=94][Q:1/4=92][Q:1/4=90] | %22
w: |
 [DF]8 z4 |] %23
w: |
V:2
 x12 | x12 | x12 | x12 | x12 | x12 | x12 | [FA]2 [DF]2 C2 D2 E2 [CG]2 | x12 | x12 | x12 | x12 | %12
w: |||||||* in~ * * * for~|||||
 x12 | x12 | x12 | [FA]2 [DF]2 C2 D2 E2 [CG]2 | x12 | F2 D2 D2 D2 D2 C2 | D8 [Fd]4 | %19
w: |||* "Thy~ * * * be~||||
 F2 F2 F2 D2 D2 D2 | D8 [_FB]4 | [FA]8 E2 C2 | x12 |] %23
w: ||||
V:3
 z4 z2 [D,A,]2 [D,A,]2 [D,A,]2 | [D,D]6 [D,A,]2 [D,B,]2 [D,A,]2 | %2
 [A,,A,]6 [A,,A,]2 [A,,A,]2 [A,,A,]2 | [A,,A,]6 [A,,A,]2 [A,,G,]2 [D,F,]2 | %4
 [D,A,]6 [D,D]2 [D,D]2 [D,D]2 | [D,D]6 [_C,A,]2 [B,,A,]2 [A,,A,]3/2 z/4 _C/4 | %6
 [G,,B,]6 [G,,D]2 [G,,D]2 [G,,D]2 | z4 A,8 | [D,A,]6 [D,F,]2 [D,F,]2 [D,F,]2 | %9
 [G,,G,]6 [G,,D]2 [G,,D]2 [D,D]2 | [D,D]6 [D,A,]2 [D,F,]2 [D,F,]2 | %11
 [D,A,]6 [D,A,]2 [D,G,]2 [D,F,]2 | [D,A,]6 [A,,A,]2 [A,,A,]2 [A,,C]2 | %13
 [D,D]6 [D,A,]2 [E,A,]2 [F,A,]2 | G,6 [G,D]2 [G,D]2 [D,D]2 | z4 A,8 | [D,A,]8 z4 | %17
 z2 [D,F,]2 [D,F,]2 [D,F,]2 [D,F,]2 [E,G,]2 | [F,A,]8 z4 | %19
 z2 [D,A,]2 [D,A,]2 [D,F,]2 [E,G,]2 [F,A,]2 | [G,B,]8 [=G,D]4 | [A,D]8 C2 A,2 | [D,A,]8 z4 |] %23
V:4
 x12 | x12 | x12 | x12 | x12 | x12 | x12 | [D,D]2 [D,A,]2 A,,2 B,,2 C,2 [A,,A,]2 | x12 | x12 | %10
 x12 | x12 | x12 | x12 | x12 | [D,D]2 [D,A,]2 A,,2 B,,2 C,2 [A,,A,]2 | x12 | x12 | x12 | x12 | %20
 x12 | z4 z4 A,,4 | x12 |] %23

